icons/ros-light.svg

<svg width="256" height="256" viewBox="0 0 256 256" fill="none" xmlns="http://www.w3.org/2000/svg">
<rect width="256" height="256" rx="60" fill="#F4F2ED"/>
<path d="M81.3201 62.2842C81.3201 72.9309 72.963 81.5684 62.6634 81.5684C52.3571 81.5684 44 72.9309 44 62.2842C44 51.6308 52.3571 43 62.6634 43C72.963 43 81.3201 51.6308 81.3201 62.2842Z" fill="#304060"/>
<path d="M81.3201 127.999C81.3201 138.646 72.963 147.283 62.6634 147.283C52.3571 147.283 44 138.646 44 127.999C44 117.346 52.3571 108.715 62.6634 108.715C72.963 108.715 81.3201 117.346 81.3201 127.999Z" fill="#304060"/>
<path d="M81.3201 193.715C81.3201 204.362 72.963 213 62.6634 213C52.3571 213 44 204.362 44 193.715C44 183.069 52.3571 174.431 62.6634 174.431C72.963 174.431 81.3201 183.069 81.3201 193.715Z" fill="#304060"/>
<path d="M146.435 127.999C146.435 138.646 138.085 147.283 127.779 147.283C117.472 147.283 109.115 138.646 109.115 127.999C109.115 117.346 117.472 108.715 127.779 108.715C138.085 108.715 146.435 117.346 146.435 127.999Z" fill="#304060"/>
<path d="M146.435 62.2842C146.435 72.9309 138.085 81.5684 127.779 81.5684C117.472 81.5684 109.115 72.9309 109.115 62.2842C109.115 51.6308 117.472 43 127.779 43C138.085 43 146.435 51.6308 146.435 62.2842" fill="#304060"/>
<path d="M211.558 127.999C211.558 138.646 203.201 147.283 192.894 147.283C182.588 147.283 174.238 138.646 174.238 127.999C174.238 117.346 182.588 108.715 192.894 108.715C203.201 108.715 211.558 117.346 211.558 127.999Z" fill="#304060"/>
<path d="M211.558 62.2842C211.558 72.9309 203.201 81.5684 192.894 81.5684C182.588 81.5684 174.238 72.9309 174.238 62.2842C174.238 51.6308 182.588 43 192.894 43C203.201 43 211.558 51.6308 211.558 62.2842" fill="#304060"/>
<path d="M211.558 193.715C211.558 204.362 203.201 213 192.894 213C182.588 213 174.238 204.362 174.238 193.715C174.238 183.069 182.588 174.431 192.894 174.431C203.201 174.431 211.558 183.069 211.558 193.715Z" fill="#304060"/>
<path d="M146.436 193.715C146.436 204.362 138.085 213 127.779 213C117.473 213 109.115 204.362 109.115 193.715C109.115 183.069 117.473 174.431 127.779 174.431C138.085 174.431 146.436 183.069 146.436 193.715Z" fill="#304060"/>
</svg>

<svg xmlns="http://www.w3.org/2000/svg" width="256" height="256" fill="none"><rect width="256" height="256" fill="#F4F2ED" rx="60"/><path fill="#304060" d="M81.32 62.284c0 10.647-8.357 19.284-18.657 19.284C52.357 81.568 44 72.931 44 62.284 44 51.631 52.357 43 62.663 43c10.3 0 18.657 8.63 18.657 19.284m0 65.715c0 10.647-8.357 19.284-18.657 19.284-10.306 0-18.663-8.637-18.663-19.284 0-10.653 8.357-19.284 18.663-19.284 10.3 0 18.657 8.631 18.657 19.284m0 65.716c0 10.647-8.357 19.285-18.657 19.285C52.357 213 44 204.362 44 193.715s8.357-19.284 18.663-19.284c10.3 0 18.657 8.638 18.657 19.284m65.115-65.716c0 10.647-8.35 19.284-18.656 19.284-10.307 0-18.664-8.637-18.664-19.284 0-10.653 8.357-19.284 18.664-19.284 10.306 0 18.656 8.631 18.656 19.284m0-65.715c0 10.647-8.35 19.284-18.656 19.284-10.307 0-18.664-8.637-18.664-19.284 0-10.653 8.357-19.284 18.664-19.284 10.306 0 18.656 8.63 18.656 19.284m65.123 65.715c0 10.647-8.357 19.284-18.664 19.284-10.306 0-18.656-8.637-18.656-19.284 0-10.653 8.35-19.284 18.656-19.284 10.307 0 18.664 8.631 18.664 19.284m0-65.715c0 10.647-8.357 19.284-18.664 19.284-10.306 0-18.656-8.637-18.656-19.284 0-10.653 8.35-19.284 18.656-19.284 10.307 0 18.664 8.63 18.664 19.284m0 131.431c0 10.647-8.357 19.285-18.664 19.285-10.306 0-18.656-8.638-18.656-19.285s8.35-19.284 18.656-19.284c10.307 0 18.664 8.638 18.664 19.284m-65.122 0c0 10.647-8.351 19.285-18.657 19.285s-18.664-8.638-18.664-19.285 8.358-19.284 18.664-19.284 18.657 8.638 18.657 19.284"/></svg>
